tools/download-figma-icons/icons/solid/business-building.svg

<svg width="24" height="24" viewBox="0 0 24 24" fill="none" xmlns="http://www.w3.org/2000/svg">
<path d="M23.25 5.25H18.75V0.75C18.75 0.551088 18.671 0.360322 18.5303 0.21967C18.3897 0.0790176 18.1989 0 18 0L6 0C5.80109 0 5.61032 0.0790176 5.46967 0.21967C5.32902 0.360322 5.25 0.551088 5.25 0.75V5.25H0.75C0.551088 5.25 0.360322 5.32902 0.21967 5.46967C0.0790176 5.61032 0 5.80109 0 6L0 23.25C0 23.4489 0.0790176 23.6397 0.21967 23.7803C0.360322 23.921 0.551088 24 0.75 24H17.85H18H23.25C23.4489 24 23.6397 23.921 23.7803 23.7803C23.921 23.6397 24 23.4489 24 23.25V6C24 5.80109 23.921 5.61032 23.7803 5.46967C23.6397 5.32902 23.4489 5.25 23.25 5.25ZM15 14.25H9C8.80109 14.25 8.61032 14.171 8.46967 14.0303C8.32902 13.8897 8.25 13.6989 8.25 13.5C8.25 13.3011 8.32902 13.1103 8.46967 12.9697C8.61032 12.829 8.80109 12.75 9 12.75H15C15.1989 12.75 15.3897 12.829 15.5303 12.9697C15.671 13.1103 15.75 13.3011 15.75 13.5C15.75 13.6989 15.671 13.8897 15.5303 14.0303C15.3897 14.171 15.1989 14.25 15 14.25ZM15.75 17.25C15.75 17.4489 15.671 17.6397 15.5303 17.7803C15.3897 17.921 15.1989 18 15 18H9C8.80109 18 8.61032 17.921 8.46967 17.7803C8.32902 17.6397 8.25 17.4489 8.25 17.25C8.25 17.0511 8.32902 16.8603 8.46967 16.7197C8.61032 16.579 8.80109 16.5 9 16.5H15C15.1989 16.5 15.3897 16.579 15.5303 16.7197C15.671 16.8603 15.75 17.0511 15.75 17.25ZM15 10.5H9C8.80109 10.5 8.61032 10.421 8.46967 10.2803C8.32902 10.1397 8.25 9.94891 8.25 9.75C8.25 9.55109 8.32902 9.36032 8.46967 9.21967C8.61032 9.07902 8.80109 9 9 9H15C15.1989 9 15.3897 9.07902 15.5303 9.21967C15.671 9.36032 15.75 9.55109 15.75 9.75C15.75 9.94891 15.671 10.1397 15.5303 10.2803C15.3897 10.421 15.1989 10.5 15 10.5ZM15 6.75H9C8.80109 6.75 8.61032 6.67098 8.46967 6.53033C8.32902 6.38968 8.25 6.19891 8.25 6C8.25 5.80109 8.32902 5.61032 8.46967 5.46967C8.61032 5.32902 8.80109 5.25 9 5.25H15C15.1989 5.25 15.3897 5.32902 15.5303 5.46967C15.671 5.61032 15.75 5.80109 15.75 6C15.75 6.19891 15.671 6.38968 15.5303 6.53033C15.3897 6.67098 15.1989 6.75 15 6.75ZM1.5 6.75H5.25V22.5H1.5V6.75ZM22.5 22.5H18.75V6.75H22.5V22.5Z" fill="black"/>
</svg>

<svg width="24" height="24" viewBox="0 0 24 24" fill="none" xmlns="http://www.w3.org/2000/svg"><path d="M23.25 5.25h-4.5V.75A.75.75 0 0 0 18 0H6a.75.75 0 0 0-.75.75v4.5H.75A.75.75 0 0 0 0 6v17.25a.75.75 0 0 0 .75.75h22.5a.75.75 0 0 0 .75-.75V6a.75.75 0 0 0-.75-.75Zm-8.25 9H9a.75.75 0 1 1 0-1.5h6a.75.75 0 1 1 0 1.5Zm.75 3A.75.75 0 0 1 15 18H9a.75.75 0 1 1 0-1.5h6a.75.75 0 0 1 .75.75ZM15 10.5H9A.75.75 0 1 1 9 9h6a.75.75 0 1 1 0 1.5Zm0-3.75H9a.75.75 0 0 1 0-1.5h6a.75.75 0 1 1 0 1.5Zm-13.5 0h3.75V22.5H1.5V6.75Zm21 15.75h-3.75V6.75h3.75V22.5Z" fill="currentColor"/></svg>
